packages/kaspersky-hexa-ui-icons/src/iconsSVGs/28x20/FlagLy.svg

<svg width="28" height="20" viewBox="0 0 28 20" fill="none" xmlns="http://www.w3.org/2000/svg">
<g clip-path="url(#clip0_5138_1262)">
<rect width="28" height="20" rx="2" fill="white"/>
<mask id="mask0_5138_1262" style="mask-type:luminance" maskUnits="userSpaceOnUse" x="0" y="0" width="28" height="20">
<rect width="28" height="20" rx="2" fill="white"/>
</mask>
<g mask="url(#mask0_5138_1262)">
<path fill-rule="evenodd" clip-rule="evenodd" d="M0 13.3333H28V6.66667H0V13.3333Z" fill="#262626"/>
<path fill-rule="evenodd" clip-rule="evenodd" d="M0 20H28V13.3333H0V20Z" fill="#34B857"/>
<path fill-rule="evenodd" clip-rule="evenodd" d="M0 6.66667H28V0H0V6.66667Z" fill="#F41F34"/>
<path fill-rule="evenodd" clip-rule="evenodd" d="M15 8.33333C15.0374 8.33333 15.0746 8.33457 15.1114 8.337C14.7936 8.12414 14.4113 8 14 8C12.8954 8 12 8.89543 12 10C12 11.1046 12.8954 12 14 12C14.4113 12 14.7936 11.8759 15.1114 11.663C15.0746 11.6654 15.0374 11.6667 15 11.6667C14.0795 11.6667 13.3333 10.9205 13.3333 10C13.3333 9.07953 14.0795 8.33333 15 8.33333ZM15.3333 10.6667C15.7015 10.6667 16 10.3682 16 10C16 9.63181 15.7015 9.33333 15.3333 9.33333C14.9651 9.33333 14.6667 9.63181 14.6667 10C14.6667 10.3682 14.9651 10.6667 15.3333 10.6667Z" fill="white"/>
</g>
</g>
<defs>
<clipPath id="clip0_5138_1262">
<rect width="28" height="20" fill="white"/>
</clipPath>
</defs>
</svg>

<svg xmlns="http://www.w3.org/2000/svg" width="28" height="20" fill="none" viewBox="0 0 28 20"><g clip-path="url(#a)"><rect width="28" height="20" fill="#fff" rx="2"/><mask id="b" width="28" height="20" x="0" y="0" maskUnits="userSpaceOnUse" style="mask-type:luminance"><rect width="28" height="20" fill="#fff" rx="2"/></mask><g fill-rule="evenodd" clip-rule="evenodd" mask="url(#b)"><path fill="#262626" d="M0 13.3333h28V6.6667H0z"/><path fill="#34b857" d="M0 20h28v-6.6667H0z"/><path fill="#f41f34" d="M0 6.6667h28V0H0z"/><path fill="#fff" d="M15 8.3333q.0561 0 .1114.0037A1.99 1.99 0 0 0 14 8c-1.1046 0-2 .8954-2 2s.8954 2 2 2a1.99 1.99 0 0 0 1.1114-.337 1.7 1.7 0 0 1-.1114.0037c-.9205 0-1.6667-.7462-1.6667-1.6667S14.0795 8.3333 15 8.3333m.3333 2.3334a.6667.6667 0 1 0 0-1.3334.6667.6667 0 0 0 0 1.3334"/></g></g><defs><clipPath id="a"><path fill="#fff" d="M0 0h28v20H0z"/></clipPath></defs></svg>
